svgs/duotone/flower-daffodil.svg

<svg xmlns="http://www.w3.org/2000/svg" viewBox="0 0 512 512"><!-- Font Awesome Pro 6.0.0-alpha2 by @fontawesome - https://fontawesome.com License - https://fontawesome.com/license (Commercial License) --><defs><style>.fa-secondary{opacity:.4}</style></defs><path d="M511.914 336.871C502.037 435 405.648 512 288.131 512H223.869C106.352 512 9.963 435 0.086 336.871C-0.914 327.746 6.963 319.996 16.088 319.996H63.346C126.355 319.996 183.238 342.246 223.994 377.875V280.789C236.67 275.121 247.783 266.594 256 255.562C264.217 266.594 275.33 275.121 288.006 280.789V377.875C328.762 342.246 385.644 319.996 448.654 319.996H495.912C505.037 319.996 512.914 327.746 511.914 336.871Z" class="fa-secondary"/><path d="M367.562 144C387.146 129.414 400 106.289 400 80C400 35.816 364.184 0 320 0C293.707 0 270.584 12.852 256 32.438C241.416 12.852 218.293 0 192 0C147.816 0 112 35.816 112 80C112 106.289 124.854 129.414 144.438 144C124.854 158.586 112 181.707 112 208C112 252.18 147.816 288 192 288C218.293 288 241.416 275.148 256 255.562C270.584 275.148 293.707 288 320 288C364.184 288 400 252.18 400 208C400 181.707 387.146 158.586 367.562 144ZM256 191.992C229.496 191.992 207.992 170.492 207.992 143.992S229.496 95.992 256 95.992S304.008 117.492 304.008 143.992S282.504 191.992 256 191.992Z" class="fa-primary"/></svg>

<svg xmlns="http://www.w3.org/2000/svg" viewBox="0 0 512 512"><!--! Font Awesome Pro 6.0.0-alpha3 by @fontawesome - https://fontawesome.com License - https://fontawesome.com/license (Commercial License) --><defs><style>.fa-secondary{opacity:.4}</style></defs><path class="fa-primary" d="M367.5 143.1C387.1 129.4 400 106.3 400 80C400 35.82 364.2 0 320 0c-26.29 0-49.42 12.87-64 32.46C241.4 12.87 218.3 0 192 0C147.8 0 112 35.82 112 80c0 26.29 12.87 49.41 32.45 63.1C124.9 158.6 112 181.7 112 208C112 252.2 147.8 288 192 288c26.29 0 49.42-12.85 64-32.44C270.6 275.1 293.7 288 320 288c44.18 0 80-35.82 80-80C400 181.7 387.1 158.6 367.5 143.1zM256 191.1c-26.5 0-48.01-21.5-48.01-48S229.5 95.1 256 95.1s48.01 21.5 48.01 48S282.5 191.1 256 191.1z"/><path class="fa-secondary" d="M511.9 336.9C502 435 405.6 512 288.1 512H223.9c-117.5 0-213.9-76.1-223.8-175.1c-1-9.125 6.877-16.88 16-16.88l47.26 .0011c63.01 0 119.9 22.25 160.6 57.88l-.0005-97.08C236.7 275.1 247.8 266.6 256 255.6c8.217 11.03 19.33 19.56 32.01 25.23l-.0005 97.08c40.76-35.63 97.64-57.88 160.6-57.88l47.26-.0011C505 319.1 512.9 327.7 511.9 336.9z"/></svg>
